src/assets/images/Facebook svg.svg

<svg width="24" height="25" viewBox="0 0 24 25" fill="none" xmlns="http://www.w3.org/2000/svg">
<g id="Facebook svg" clip-path="url(#clip0_1275_6287)">
<g id="g10">
<g id="g12">
<path id="path14" d="M24 12.9417C24 6.31425 18.6274 0.941677 12 0.941677C5.37258 0.941677 0 6.31425 0 12.9417C0 18.9312 4.38823 23.8957 10.125 24.7959V16.4104H7.07813V12.9417H10.125V10.2979C10.125 7.29043 11.9165 5.62918 14.6576 5.62918C15.9705 5.62918 17.3438 5.86355 17.3438 5.86355V8.81668H15.8306C14.3399 8.81668 13.875 9.74168 13.875 10.6907V12.9417H17.2031L16.6711 16.4104H13.875V24.7959C19.6118 23.8957 24 18.9312 24 12.9417Z" fill="black"/>
<path id="path16" d="M16.6711 16.4102L17.2031 12.9414H13.875V10.6904C13.875 9.74141 14.3399 8.81641 15.8306 8.81641H17.3438V5.86328C17.3438 5.86328 15.9705 5.62891 14.6576 5.62891C11.9165 5.62891 10.125 7.29016 10.125 10.2977V12.9414H7.07812V16.4102H10.125V24.7956C10.7359 24.8915 11.3621 24.9414 12 24.9414C12.6379 24.9414 13.2641 24.8915 13.875 24.7956V16.4102H16.6711Z" fill="white"/>
</g>
</g>
</g>
<defs>
<clipPath id="clip0_1275_6287">
<rect width="24" height="24" fill="white" transform="translate(0 0.941406)"/>
</clipPath>
</defs>
</svg>

<svg width="24" height="25" fill="none" xmlns="http://www.w3.org/2000/svg"><g clip-path="url(#a)"><path d="M24 12.942c0-6.628-5.373-12-12-12s-12 5.372-12 12c0 5.99 4.388 10.954 10.125 11.854V16.41H7.078v-3.468h3.047v-2.644c0-3.008 1.791-4.669 4.533-4.669 1.313 0 2.686.235 2.686.235v2.953H15.83c-1.491 0-1.956.925-1.956 1.874v2.25h3.328l-.532 3.47h-2.796v8.385C19.612 23.896 24 18.93 24 12.942Z" fill="#000"/><path d="m16.671 16.41.532-3.469h-3.328v-2.25c0-.95.465-1.875 1.956-1.875h1.513V5.863s-1.374-.234-2.686-.234c-2.742 0-4.533 1.661-4.533 4.669v2.643H7.078v3.47h3.047v8.385a12.084 12.084 0 0 0 3.75 0V16.41h2.796Z" fill="#fff"/></g><defs><clipPath id="a"><path fill="#fff" transform="translate(0 .941)" d="M0 0h24v24H0z"/></clipPath></defs></svg>
